actions/22x22-light/im-yahoo.svg

<svg viewBox="0 0 22 22" xmlns="http://www.w3.org/2000/svg"><path d="m11 3a8 8 0 0 0 -8 8 8 8 0 0 0 8 8 8 8 0 0 0 8-8 8 8 0 0 0 -8-8zm-3.9628906 3.5c.5448717.1238547.772367.1164431 1.3183594 0 .6886002 1.2203509 1.7458202 2.9274848 2.6386722 4.40625.880339-1.4474011 2.263648-3.7077226 2.638671-4.40625.425559.1113902.854824.1078071 1.330079 0-.49864.6736015-2.3141 3.822103-3.414063 5.751953l.080078 4.248047s-.351122-.064453-.632812-.064453c-.25417 0-.634766.064453-.634766.064453l.080078-4.248047c-.5894853-1.018855-2.3229292-4.1225019-3.4042966-5.751953z" fill="#4d4d4d"/></svg>

<svg xmlns="http://www.w3.org/2000/svg" viewBox="0 0 22 22">
  <defs id="defs3051">
    <style type="text/css" id="current-color-scheme">
      .ColorScheme-Text {
        color:#4d4d4d
      }
      </style>
  </defs>
 <path 
     style="fill:currentColor;fill-opacity:1;stroke:none"      
	 class="ColorScheme-Text"
        d="M 11 3 A 8 8 0 0 0 3 11 A 8 8 0 0 0 11 19 A 8 8 0 0 0 19 11 A 8 8 0 0 0 11 3 z M 7.0371094 6.5 C 7.5819811 6.6238547 7.8094764 6.6164431 8.3554688 6.5 C 9.044069 7.7203509 10.101289 9.4274848 10.994141 10.90625 C 11.87448 9.4588489 13.257789 7.1985274 13.632812 6.5 C 14.058371 6.6113902 14.487636 6.6078071 14.962891 6.5 C 14.464251 7.1736015 12.648791 10.322103 11.548828 12.251953 L 11.628906 16.5 C 11.628906 16.5 11.277784 16.435547 10.996094 16.435547 C 10.741924 16.435547 10.361328 16.5 10.361328 16.5 L 10.441406 12.251953 C 9.8519207 11.233098 8.1184768 8.1294511 7.0371094 6.5 z "
     />
</svg>
